X:1
T:Title
%%score { ( 1 3 ) | ( 2 4 ) }
L:1/8
M:12/8
K:F
V:1 treble nm="Grand Piano"
V:3 treble 
V:2 bass 
V:4 bass 
V:1
 z6 z2[Q:1/4=108] C F2 A | c6- c2 z z3 | F6- F2 z z3 | G6- G2 z z3 | F6- F2 z z3 | c6 .c3 z3 | %6
[M:4/4] z2 F6 |[M:2/4] C F2 A |[M:6/4] .G12 |[M:4/4] z2 F6 |[M:2/4] F f2 e |[M:6/4] .d12 | .c12 | %13
 .B12 | .A12 | .d12 |[M:4/4] c8 |[M:2/4] C F2 A |[M:6/4] .G12 |[M:8/4] z2 F6 z8 |] %20
V:2
 z12 | z2 [F,A,] [F,A,]2 [F,A,] [F,A,] .[F,A,]2 z3 | z2 [F,A,] [F,B,]2 [F,B,] .[F,A,]3 z3 | %3
 z2 [C,C] [C,C]2 [C,C] .[C,C]3 z3 | z2 [F,A,] [F,B,]2 [F,B,] .[F,A,]3 z3 | %5
 z2 [F,F] [F,F]2 [F,F] [F,F] .[F,F]2 z3 |[M:4/4] z2 [F,D][F,C]- [F,C][F,B,] [F,A,]2 |[M:2/4] z4 | %8
[M:6/4] z2 [C,C] [C,C]2 [C,C] .[C,C]6 |[M:4/4] z2 [F,A,][F,A,]- [F,A,][F,B,] [F,A,]2 | %10
[M:2/4] z[K:treble] d2 c |[M:6/4] .B12[K:bass][K:treble] | .A12[K:bass][K:treble] | %13
 .G12[K:bass][K:treble] | .F12[K:bass][K:treble] | .B12[K:bass][K:treble] |[M:4/4] A8[K:bass] | %17
[M:2/4] z4 |[M:6/4] z2 [C,C] [C,C]2 [C,C] .[C,C]6 | %19
[M:8/4] z2 [F,A,][F,A,]-[F,A,][F,B,] [F,A,]2 z8 |] %20
V:3
 x12 | z2 F F2 F FFd/c/ A2 c | z2 C D2 D C2 C F2 A | z2 E E2 E E2 C E2 G | z2 C D2 D C2 C F2 A | %5
 z2 A A2 A AAd/c/ A2 c |[M:4/4] F2 z E- ED C2 |[M:2/4] x4 |[M:6/4] z2 E E2 E E2 c B2 E | %9
[M:4/4] F2 z C- CD C2 |[M:2/4] x4 |[M:6/4] z2 F F2 F F2 d e2 d | z2 F F2 F F2 c d2 c | %13
 z2 E E2 E E2 B c2 B | z2 C C2 C C2 F f2 e | z2 F F2 F F2 d e2 d |[M:4/4] z2 FF- FF F2 | %17
[M:2/4] x4 |[M:6/4] z2 E E2 E E2 c B2 E |[M:8/4] .F3 C-CD C2 z8 |] %20
V:4
 x12 | x12 | x12 | x12 | x12 | x12 |[M:4/4] x8 |[M:2/4] x4 |[M:6/4] x12 |[M:4/4] x8 | %10
[M:2/4] x[K:treble] x3 |[M:6/4] z2[K:bass] [B,,B,] [B,,B,]2 [B,,B,] [B,,B,]2[K:treble] B c2 B | %12
 z2[K:bass] F, F,2 F, F,2[K:treble] A B2 A | z2[K:bass] C, C,2 C, C,2[K:treble] G A2 G | %14
 z2[K:bass] F, F,2 F, .F,3[K:treble] d2 c | %15
 z2[K:bass] [B,,B,] [B,,B,]2 [B,,B,] [B,,B,]2[K:treble] B c2 B |[M:4/4] z2[K:bass] F,F,- F,F, F,2 | %17
[M:2/4] x4 |[M:6/4] x12 |[M:8/4] x16 |] %20

